X: 2017
M: 3/2
L: 1/8
K: D
d2 c4 B3 c d2 | (cB) (cd) (eB) c3 B A2 |\
(ab) (ag) (fb) ^g3 f g2 |
a2 a3 ^g a3 b (a>g) |\
(f>g) (f>e) (d>c) B3 c d2 | (c>B) (c>d) (e>A) c3 B A2 |\
(ab) (ag) (fb) (g3 f/g/) a>c | de fd Hd6 |]


